brandFactory_export/1.Light/Cafe_1Light.svg

<?xml version="1.0" encoding="UTF-8"?>
<svg width="24px" height="24px" viewBox="0 0 24 24" version="1.1" xmlns="http://www.w3.org/2000/svg" xmlns:xlink="http://www.w3.org/1999/xlink">
    <title>1.Light/Cafe_1Light</title>
    <g id="Symbols" stroke="none" stroke-width="1" fill="none" fill-rule="evenodd">
        <g id="1.Light/Cafe_1Light" fill="#5CB615" fill-rule="nonzero">
            <path d="M17.7915966,18.7327731 C19.1563025,18.6655462 22.5983193,18.0504202 22.5983193,13.6840336 C22.5983193,9.34453782 19.1798319,8.69243697 17.7915966,8.60840336 L17.7915966,18.7327731 Z M16.7663866,19.0890756 L16.7663866,6.63529412 L1.02521008,6.63529412 L1.02521008,19.0857143 C1.02521008,20.3193277 1.3210084,21.2 1.92941176,21.7781513 C2.53445378,22.3529412 3.44201681,22.6352941 4.71260504,22.6352941 L13.0789916,22.6352941 C14.3495798,22.6352941 15.2571429,22.3563025 15.8621849,21.7781513 C16.4705882,21.2 16.7663866,20.3193277 16.7663866,19.0890756 Z M23.6235294,13.6806723 C23.6235294,19.1058824 19.0084034,19.6672269 17.7478992,19.7210084 C17.6470588,20.9008403 17.2739496,21.8218487 16.5848739,22.4840336 C15.7815126,23.2504202 14.6352941,23.6235294 13.0823529,23.6235294 L4.71260504,23.6235294 C3.15966387,23.6235294 2.01344538,23.2504202 1.21008403,22.4806723 C0.393277311,21.707563 0,20.5983193 0,19.0890756 L0,6.14453782 C0,5.87226891 0.228571429,5.65042017 0.51092437,5.65042017 L17.2773109,5.65042017 C17.5596639,5.65042017 17.7915966,5.87226891 17.7915966,6.14117647 L17.7915966,7.61680672 C19.1495798,7.69747899 23.6235294,8.35630252 23.6235294,13.6806723 Z M6.67563025,4.20168067 C6.67563025,4 6.54117647,3.78487395 6.38319328,3.5394958 C6.17815126,3.21344538 5.94285714,2.84705882 5.9394958,2.3697479 C5.93613445,1.88571429 6.17142857,1.5092437 6.37983193,1.17647059 C6.53781513,0.924369748 6.67563025,0.702521008 6.67563025,0.497478992 C6.67563025,0.225210084 6.90420168,0.00336134454 7.18655462,0.00336134454 C7.46890756,0.00336134454 7.70084034,0.225210084 7.70084034,0.494117647 C7.70084034,0.974789916 7.46554622,1.3512605 7.2605042,1.68067227 C7.10252101,1.93613445 6.96470588,2.15462185 6.96470588,2.35966387 C6.96806723,2.56470588 7.10252101,2.77647059 7.2605042,3.02184874 C7.46554622,3.34789916 7.70420168,3.71764706 7.70420168,4.19831933 C7.70420168,4.47058824 7.47226891,4.68907563 7.18991597,4.68907563 C6.91092437,4.69579832 6.68235294,4.47731092 6.67563025,4.20168067 Z M9.97647059,4.20168067 C9.97647059,4.15462185 9.86218487,4.01008403 9.80168067,3.92941176 C9.63361345,3.71428571 9.42184874,3.44537815 9.41848739,3.07226891 C9.41512605,2.69579832 9.62689076,2.41680672 9.79831933,2.19495798 C9.86554622,2.10756303 9.97647059,1.96302521 9.97647059,1.91260504 C9.97647059,1.64033613 10.2084034,1.41848739 10.487395,1.41848739 C10.7630252,1.41176471 10.994958,1.6302521 11.0016807,1.9092437 L11.0016807,1.91260504 C11.0016807,2.28907563 10.789916,2.56134454 10.6218487,2.78319328 C10.5579832,2.86386555 10.4436975,3.01512605 10.4436975,3.06554622 C10.4436975,3.11260504 10.5546218,3.25378151 10.6218487,3.33781513 C10.7831933,3.54285714 11.005042,3.82857143 11.005042,4.20504202 C11.005042,4.47731092 10.7731092,4.69579832 10.4907563,4.69579832 C10.2117647,4.69579832 9.98319328,4.47731092 9.97647059,4.20168067 Z" id="Cafe_1Light"></path>
        </g>
    </g>
</svg>

<svg width="24" height="24" viewBox="0 0 24 24" xmlns="http://www.w3.org/2000/svg"><path d="M17.792 18.733c1.364-.067 4.806-.683 4.806-5.049 0-4.34-3.418-4.992-4.806-5.076v10.125zm-1.026.356V6.635H1.026v12.45c0 1.234.295 2.115.903 2.693.605.575 1.513.857 2.784.857h8.366c1.27 0 2.178-.279 2.783-.857.609-.578.904-1.459.904-2.689zm6.858-5.408c0 5.425-4.616 5.986-5.876 6.04-.1 1.18-.474 2.1-1.163 2.763-.803.766-1.95 1.14-3.503 1.14h-8.37c-1.552 0-2.699-.374-3.502-1.143C.393 21.708 0 20.598 0 19.089V6.145c0-.273.229-.495.51-.495h16.767c.283 0 .515.222.515.491v1.476c1.358.08 5.832.74 5.832 6.064zM6.676 4.2c0-.201-.135-.416-.293-.662-.205-.326-.44-.692-.444-1.17-.003-.483.232-.86.44-1.193.159-.252.297-.473.297-.679 0-.272.228-.494.51-.494.283 0 .515.222.515.491 0 .48-.235.857-.44 1.187-.158.255-.296.474-.296.679.003.205.138.416.296.662.205.326.443.696.443 1.176 0 .273-.232.491-.514.491a.5.5 0 01-.514-.487zm3.3 0c0-.046-.114-.19-.174-.272-.168-.215-.38-.484-.384-.857-.003-.376.209-.655.38-.877.068-.087.178-.232.178-.282 0-.273.232-.495.511-.495a.503.503 0 01.515.491v.004c0 .376-.212.648-.38.87-.064.08-.178.232-.178.283 0 .047.11.188.178.272.161.205.383.49.383.867 0 .272-.232.49-.514.49a.51.51 0 01-.515-.493z" fill="#5CB615" fill-rule="nonzero"/></svg>
